**kern	**silbe	**kern	**silbe	**harmony	**phrase	**leadinstrument	**rhyme	**timestamp	**harte
*ICvox	*	*ICvox	*	*M4/4	*	*	*	*	*M4/4
*VRlead	*	*VRharmonize*VRresponse	*	*	*	*	*	*	*
*Hstimme	*	*Nstimme	*	*	*	*	*	*	*
*E-:	*	*E-:	*	*E-:	*	*	*	*	*E-:
*M4/4	*	*M4/4	*	*	*	*	*	*	*
*clefG2	*	*clefG2	*	*	*	*	*	*	*
r;	.	r;	.	1r;	.	r	.	0	N.C.
r;	.	r;	.	1r;	.	r	.	0.093	N.C.
=1	=1	=1	=1	=1	=1	=1	=1	=1	=1
*>Letter>A	*>Letter>A	*>Letter>A	*>Letter>A	*>Letter>A	*>Letter>A	*>Letter>A	*>Letter>A	*>Letter>A	*>Letter>A
*>Label>Intro	*>Label>Intro	*>Label>Intro	*>Label>Intro	*>Label>Intro	*>Label>Intro	*>Label>Intro	*>Label>Intro	*>Label>Intro	*>Label>Intro
2r	.	1r	.	1A-Mm	newline	brass	.	12.509	A-:13
4.r	.	.	.	.	.	.	.	.	.
16f	Get	.	.	.	.	.	.	.	.
[16g-	up	.	.	.	.	.	.	.	.
=2	=2	=2	=2	=2	=2	=2	=2	=2	=2
*>Letter>B	*>Letter>B	*>Letter>B	*>Letter>B	*>Letter>B	*>Letter>B	*>Letter>B	*>Letter>B	*>Letter>B	*>Letter>B
*>Label>Verse	*>Label>Verse	*>Label>Verse	*>Label>Verse	*>Label>Verse	*>Label>Verse	*>Label>Verse	*>Label>Verse	*>Label>Verse	*>Label>Verse
16g-]	_	4r	.	1E-Mm	newline	voice	.	14.795	E-:13
16~e-	ah	.	.	.	.	.	.	.	.
8r	.	.	.	.	.	.	.	.	.
4r	.	16e-	Get	.	.	.	.	.	.
.	.	8e-	on	.	.	.	.	.	.
.	.	16e-	up	.	.	.	.	.	.
4.r	.	2r	.	.	.	.	.	.	.
16e-	Get	.	.	.	.	.	.	.	.
[16e-	up	.	.	.	.	.	.	.	.
=3	=3	=3	=3	=3	=3	=3	=3	=3	=3
16e-]	_	4r	.	1E-Mm	.	voice	.	17.04	E-:13
16~e-	ah	.	.	.	.	.	.	.	.
8r	.	.	.	.	.	.	.	.	.
4r	.	16e-	Get	.	.	.	.	.	.
.	.	8e-	on	.	.	.	.	.	.
.	.	16e-	up	.	.	.	.	.	.
4r	.	2r	.	.	.	.	.	.	.
16e-	Stay	.	.	.	.	.	.	.	.
8e-	on	.	.	.	.	.	.	.	.
16e-	the	.	.	.	.	.	.	.	.
=4	=4	=4	=4	=4	=4	=4	=4	=4	=4
8g-	scene	4r	.	1E-Mm	newline	voice	A	19.285	E-:13
16~e-	uh	.	.	.	.	.	.	.	.
16r	.	.	.	.	.	.	.	.	.
4r	.	16e-	Get	.	.	.	.	.	.
.	.	8e-	on	.	.	.	.	.	.
.	.	16e-	up	.	.	.	.	.	.
16r	.	2r	.	.	.	.	.	.	.
16~d-	Uh	.	.	.	.	.	.	.	.
16~e-	like	.	.	.	.	.	.	.	.
16~e-	a	.	.	.	.	.	.	.	.
8f	sex	.	.	.	.	.	.	.	.
16d-	ma-	.	.	.	.	.	.	.	.
[16d-	-chine	.	.	.	.	.	A	.	.
=5	=5	=5	=5	=5	=5	=5	=5	=5	=5
16d-]	_	4r	.	1E-Mm	.	voice	.	21.476	E-:13
16~d	uh	.	.	.	.	.	.	.	.
8r	.	.	.	.	.	.	.	.	.
4r	.	16e-	Get	.	.	.	.	.	.
.	.	8e-	on	.	.	.	.	.	.
.	.	16e-	up	.	.	.	.	.	.
4r	.	2r	.	.	.	.	.	.	.
8r	.	.	.	.	.	.	.	.	.
16g-	Get	.	.	.	.	.	.	.	.
[16a-	up	.	.	.	.	.	.	.	.
=6	=6	=6	=6	=6	=6	=6	=6	=6	=6
16a-]	_	4r	.	1E-Mm	newline	voice	.	23.667	E-:13
16~e-	ah	.	.	.	.	.	.	.	.
8r	.	.	.	.	.	.	.	.	.
4r	.	16e-	Get	.	.	.	.	.	.
.	.	8e-	on	.	.	.	.	.	.
.	.	16e-	up	.	.	.	.	.	.
4.r	.	2r	.	.	.	.	.	.	.
16a	Get	.	.	.	.	.	.	.	.
[16b-	up	.	.	.	.	.	.	.	.
=7	=7	=7	=7	=7	=7	=7	=7	=7	=7
16b-]	_	4r	.	1E-Mm	.	voice	.	25.875	E-:13
16~e-	ah	.	.	.	.	.	.	.	.
8r	.	.	.	.	.	.	.	.	.
4r	.	16e-	Get	.	.	.	.	.	.
.	.	8e-	on	.	.	.	.	.	.
.	.	16e-	up	.	.	.	.	.	.
4r	.	2r	.	.	.	.	.	.	.
16e-	Stay	.	.	.	.	.	.	.	.
8e-	on	.	.	.	.	.	.	.	.
16e-	the	.	.	.	.	.	.	.	.
=8	=8	=8	=8	=8	=8	=8	=8	=8	=8
8g-	scene	4r	.	1E-Mm	newline	voice	A	28.083	E-:13
16~e-	uh	.	.	.	.	.	.	.	.
16r	.	.	.	.	.	.	.	.	.
4r	.	16e-	Get	.	.	.	.	.	.
.	.	8e-	on	.	.	.	.	.	.
.	.	16e-	up	.	.	.	.	.	.
16r	.	2r	.	.	.	.	.	.	.
16~d-	Uh	.	.	.	.	.	.	.	.
16~e-	like	.	.	.	.	.	.	.	.
16~e-	a	.	.	.	.	.	.	.	.
8f	sex	.	.	.	.	.	.	.	.
16e-	ma-	.	.	.	.	.	.	.	.
[16e-	-chine	.	.	.	.	.	A	.	.
=9	=9	=9	=9	=9	=9	=9	=9	=9	=9
16e-]	_	4r	.	1E-Mm	.	voice	.	30.292	E-:13
16~B-	uh	.	.	.	.	.	.	.	.
8r	.	.	.	.	.	.	.	.	.
4r	.	16e-	Get	.	.	.	.	.	.
.	.	8e-	on	.	.	.	.	.	.
.	.	16e-	up	.	.	.	.	.	.
4.r	.	2r	.	.	.	.	.	.	.
16cc	Get	.	.	.	.	.	.	.	.
[16dd-	up	.	.	.	.	.	.	.	.
=10	=10	=10	=10	=10	=10	=10	=10	=10	=10
16dd-]	_	4r	.	1E-Mm	newline	voice	.	32.501	E-:13
16~b-	ah	.	.	.	.	.	.	.	.
8r	.	.	.	.	.	.	.	.	.
4r	.	16e-	Get	.	.	.	.	.	.
.	.	8e-	on	.	.	.	.	.	.
.	.	16e-	up	.	.	.	.	.	.
4r	.	2r	.	.	.	.	.	.	.
16e-	Stay	.	.	.	.	.	.	.	.
8e-	on	.	.	.	.	.	.	.	.
16e-	the	.	.	.	.	.	.	.	.
=11	=11	=11	=11	=11	=11	=11	=11	=11	=11
8g-	scene	4r	.	1E-Mm	.	voice	A	34.72	E-:13
16~e-	uh	.	.	.	.	.	.	.	.
16r	.	.	.	.	.	.	.	.	.
4r	.	16e-	Get	.	.	.	.	.	.
.	.	8e-	on	.	.	.	.	.	.
.	.	16e-	up	.	.	.	.	.	.
16r	.	2r	.	.	.	.	.	.	.
16~d-	Uh	.	.	.	.	.	.	.	.
16~e-	like	.	.	.	.	.	.	.	.
16~e-	a	.	.	.	.	.	.	.	.
8f	sex	.	.	.	.	.	.	.	.
16e-	ma-	.	.	.	.	.	.	.	.
[16e-	-chine	.	.	.	.	.	A	.	.
=12	=12	=12	=12	=12	=12	=12	=12	=12	=12
16e-]	_	4r	.	1E-Mm	newline	voice	.	36.939	E-:13
16~B-	uh	.	.	.	.	.	.	.	.
8r	.	.	.	.	.	.	.	.	.
4r	.	16e-	Get	.	.	.	.	.	.
.	.	8e-	on	.	.	.	.	.	.
.	.	16e-	up	.	.	.	.	.	.
16r	.	2r	.	.	.	.	.	.	.
16~d-	Uh	.	.	.	.	.	.	.	.
16~e-	wait	.	.	.	.	.	.	.	.
16~e-	a	.	.	.	.	.	.	.	.
16~e-	mi-	.	.	.	.	.	.	.	.
8.~B-	-nute	.	.	.	.	.	.	.	.
=13	=13	=13	=13	=13	=13	=13	=13	=13	=13
8r	.	1r	.	1E-Mm	.	voice	.	39.163	E-:13
16e-	Shake	.	.	.	.	.	.	.	.
[16d-	your	.	.	.	.	.	.	.	.
16d-]	_	.	.	.	.	.	.	.	.
16e-	arm	.	.	.	.	.	B	.	.
8B-	_	.	.	.	.	.	.	.	.
4r	.	.	.	.	.	.	.	.	.
8r	.	.	.	.	.	.	.	.	.
16d-	then	.	.	.	.	.	.	.	.
[16e-	use	.	.	.	.	.	.	.	.
=14	=14	=14	=14	=14	=14	=14	=14	=14	=14
16e-]	_	1r	.	1E-Mm	newline	voice	.	41.387	E-:13
8B-	your	.	.	.	.	.	.	.	.
16e-	form	.	.	.	.	.	B	.	.
8f	_	.	.	.	.	.	.	.	.
8r	.	.	.	.	.	.	.	.	.
2r	.	.	.	.	.	.	.	.	.
=15	=15	=15	=15	=15	=15	=15	=15	=15	=15
16a	Stay	1r	.	1E-Mm	.	voice	.	43.588	E-:13
8a-	on	.	.	.	.	.	.	.	.
16g	the	.	.	.	.	.	.	.	.
8a-	scene	.	.	.	.	.	A	.	.
8~e-	uh	.	.	.	.	.	.	.	.
4r	.	.	.	.	.	.	.	.	.
16r	.	.	.	.	.	.	.	.	.
16~d-	Uh	.	.	.	.	.	.	.	.
16~e-	like	.	.	.	.	.	.	.	.
16~e-	a	.	.	.	.	.	.	.	.
=16	=16	=16	=16	=16	=16	=16	=16	=16	=16
8e-	sex	1r	.	1E-Mm	newline	voice	.	45.79	E-:13
16d-	ma-	.	.	.	.	.	.	.	.
[16e-	-chine	.	.	.	.	.	A	.	.
16e-]	_	.	.	.	.	.	.	.	.
16~B-	uh	.	.	.	.	.	.	.	.
8r	.	.	.	.	.	.	.	.	.
4r	.	.	.	.	.	.	.	.	.
8.r	.	.	.	.	.	.	.	.	.
16~d-	Ya	.	.	.	.	.	.	.	.
=17	=17	=17	=17	=17	=17	=17	=17	=17	=17
16d-	got-	1r	.	1E-Mm	.	voice	.	47.995	E-:13
16d-	-ta	.	.	.	.	.	.	.	.
16e-	have	.	.	.	.	.	.	.	.
16e-	the	.	.	.	.	.	.	.	.
8f	fee-	.	.	.	.	.	.	.	.
8d-	-lin'	.	.	.	.	.	.	.	.
2r	.	.	.	.	.	.	.	.	.
=18	=18	=18	=18	=18	=18	=18	=18	=18	=18
16d-	Sure	1r	.	1E-Mm	newline	voice	.	50.2	E-:13
16d-	as	.	.	.	.	.	.	.	.
16d-	you're	.	.	.	.	.	.	.	.
16f	born	.	.	.	.	.	C	.	.
8g	_	.	.	.	.	.	.	.	.
8r	.	.	.	.	.	.	.	.	.
4r	.	.	.	.	.	.	.	.	.
8.r	.	.	.	.	.	.	.	.	.
16e-	and	.	.	.	.	.	.	.	.
=19	=19	=19	=19	=19	=19	=19	=19	=19	=19
16e-	get	1r	.	1E-Mm	.	voice	.	52.423	E-:13
16e-	it	.	.	.	.	.	.	.	.
16~e-	to-	.	.	.	.	.	.	.	.
[16e-	-ge-	.	.	.	.	.	.	.	.
16e-]	_	.	.	.	.	.	.	.	.
16d-	-ther	.	.	.	.	.	.	.	.
8r	.	.	.	.	.	.	.	.	.
4r	.	.	.	.	.	.	.	.	.
8r	.	.	.	.	.	.	.	.	.
16e-	Right	.	.	.	.	.	.	.	.
[16e-	on	.	.	.	.	.	C	.	.
=20	=20	=20	=20	=20	=20	=20	=20	=20	=20
16e-]	_	1r	.	1E-Mm	newline	voice	.	54.646	E-:13
8e-	Right	.	.	.	.	.	.	.	.
[16d-	on	.	.	.	.	.	.	.	.
16d-]	_	.	.	.	.	.	.	.	.
16r	.	.	.	.	.	.	.	.	.
8r	.	.	.	.	.	.	.	.	.
4.r	.	.	.	.	.	.	.	.	.
16f	Get	.	.	.	.	.	.	.	.
[16g-	up	.	.	.	.	.	.	.	.
=21	=21	=21	=21	=21	=21	=21	=21	=21	=21
16g-]	_	4r	.	1E-Mm	.	voice	.	56.847	E-:13
16~e-	ah	.	.	.	.	.	.	.	.
8r	.	.	.	.	.	.	.	.	.
4r	.	16e-	Get	.	.	.	.	.	.
.	.	8e-	on	.	.	.	.	.	.
.	.	16e-	up	.	.	.	.	.	.
4r	.	2r	.	.	.	.	.	.	.
8r	.	.	.	.	.	.	.	.	.
16f#	Get	.	.	.	.	.	.	.	.
[16g	up	.	.	.	.	.	.	.	.
=22	=22	=22	=22	=22	=22	=22	=22	=22	=22
16g]	_	4r	.	1E-Mm	newline	voice	.	59.049	E-:13
16~e-	ah	.	.	.	.	.	.	.	.
8r	.	.	.	.	.	.	.	.	.
4r	.	16e-	Get	.	.	.	.	.	.
.	.	8e-	on	.	.	.	.	.	.
.	.	16e-	up	.	.	.	.	.	.
4.r	.	2r	.	.	.	.	.	.	.
16g	Get	.	.	.	.	.	.	.	.
[16a-	up	.	.	.	.	.	.	.	.
=23	=23	=23	=23	=23	=23	=23	=23	=23	=23
16a-]	_	4r	.	1E-Mm	.	voice	.	61.261	E-:13
16~e-	ah	.	.	.	.	.	.	.	.
8r	.	.	.	.	.	.	.	.	.
4r	.	16e-	Get	.	.	.	.	.	.
.	.	8e-	on	.	.	.	.	.	.
.	.	16e-	up	.	.	.	.	.	.
2r	.	2r	.	.	.	.	.	.	.
=24	=24	=24	=24	=24	=24	=24	=24	=24	=24
1r	.	1r	.	1E-Mm	newline	piano	.	63.474	E-:13
=25	=25	=25	=25	=25	=25	=25	=25	=25	=25
1r	.	1r	.	1E-Mm	.	piano	.	65.735	E-:13
=26	=26	=26	=26	=26	=26	=26	=26	=26	=26
2r	.	1r	.	1E-Mm	newline	piano	.	67.996	E-:13
4.r	.	.	.	.	.	.	.	.	.
8~b-	Huh!	.	.	.	.	.	.	.	.
=27	=27	=27	=27	=27	=27	=27	=27	=27	=27
1r	.	1r	.	1E-Mm	.	piano	.	70.238	E-:13
=28	=28	=28	=28	=28	=28	=28	=28	=28	=28
1r	.	1r	.	1E-Mm	newline	piano	.	72.481	E-:13
=29	=29	=29	=29	=29	=29	=29	=29	=29	=29
1r	.	1r	.	1E-Mm	.	piano	.	74.693	E-:13
=30	=30	=30	=30	=30	=30	=30	=30	=30	=30
1r	.	1r	.	1E-Mm	newline	piano	.	76.905	E-:13
=31	=31	=31	=31	=31	=31	=31	=31	=31	=31
2r	.	1r	.	1E-Mm	.	piano	.	79.167	E-:13
4.r	.	.	.	.	.	.	.	.	.
16e-	Get	.	.	.	.	.	.	.	.
[16e-	up	.	.	.	.	.	.	.	.
=32	=32	=32	=32	=32	=32	=32	=32	=32	=32
16e-]	_	4r	.	1E-Mm	newline	voice	.	81.429	E-:13
16~d-	ah	.	.	.	.	.	.	.	.
8r	.	.	.	.	.	.	.	.	.
4r	.	16e-	Get	.	.	.	.	.	.
.	.	8e-	on	.	.	.	.	.	.
.	.	16e-	up	.	.	.	.	.	.
4r	.	2r	.	.	.	.	.	.	.
8r	.	.	.	.	.	.	.	.	.
16g	Get	.	.	.	.	.	.	.	.
[16a-	up	.	.	.	.	.	.	.	.
=33	=33	=33	=33	=33	=33	=33	=33	=33	=33
16a-]	_	4r	.	1E-Mm	.	voice	.	83.667	E-:13
16~e-	ah	.	.	.	.	.	.	.	.
8r	.	.	.	.	.	.	.	.	.
4r	.	16e-	Get	.	.	.	.	.	.
.	.	8e-	on	.	.	.	.	.	.
.	.	16e-	up	.	.	.	.	.	.
4r	.	2r	.	.	.	.	.	.	.
8r	.	.	.	.	.	.	.	.	.
16dd-	Get	.	.	.	.	.	.	.	.
[16ee-	up	.	.	.	.	.	.	.	.
=34	=34	=34	=34	=34	=34	=34	=34	=34	=34
16ee-]	_	4r	.	1E-Mm	newline	voice	.	85.906	E-:13
16r	.	.	.	.	.	.	.	.	.
8~e-	ah	.	.	.	.	.	.	.	.
4r	.	16e-	Get	.	.	.	.	.	.
.	.	8e-	on	.	.	.	.	.	.
.	.	16e-	up	.	.	.	.	.	.
4.r	.	2r	.	.	.	.	.	.	.
16e-	Get	.	.	.	.	.	.	.	.
[16e-	up	.	.	.	.	.	.	.	.
=35	=35	=35	=35	=35	=35	=35	=35	=35	=35
16e-]	_	4r	.	1E-Mm	.	voice	.	88.133	E-:13
16~e-	ah	.	.	.	.	.	.	.	.
8r	.	.	.	.	.	.	.	.	.
4r	.	16e-	Get	.	.	.	.	.	.
.	.	8e-	on	.	.	.	.	.	.
.	.	16e-	up	.	.	.	.	.	.
4.r	.	2r	.	.	.	.	.	.	.
16~e-	You	.	.	.	.	.	.	.	.
[16~f	said	.	.	.	.	.	.	.	.
=36	=36	=36	=36	=36	=36	=36	=36	=36	=36
16~f]	_	1r	.	1E-Mm	newline	voice	.	90.36	E-:13
16~e-	uh	.	.	.	.	.	.	.	.
8r	.	.	.	.	.	.	.	.	.
4r	.	.	.	.	.	.	.	.	.
8.r	.	.	.	.	.	.	.	.	.
16d-	I	.	.	.	.	.	.	.	.
16e-	said	.	.	.	.	.	.	.	.
16d-	you	.	.	.	.	.	.	.	.
16e-	got-	.	.	.	.	.	.	.	.
16~d-	-ta	.	.	.	.	.	.	.	.
=37	=37	=37	=37	=37	=37	=37	=37	=37	=37
2r	.	1r	.	1E-Mm	.	voice	.	92.595	E-:13
4r	.	.	.	.	.	.	.	.	.
16r	.	.	.	.	.	.	.	.	.
16~d-	Uh	.	.	.	.	.	.	.	.
16e-	said	.	.	.	.	.	.	.	.
16d-	the	.	.	.	.	.	.	.	.
=38	=38	=38	=38	=38	=38	=38	=38	=38	=38
8f	fee-	1r	.	1E-Mm	newline	voice	.	94.83	E-:13
16d-	-lin'	.	.	.	.	.	.	.	.
16r	.	.	.	.	.	.	.	.	.
4r	.	.	.	.	.	.	.	.	.
8.r	.	.	.	.	.	.	.	.	.
16~d-	You	.	.	.	.	.	.	.	.
8d-	got-	.	.	.	.	.	.	.	.
16~d-	-ta	.	.	.	.	.	.	.	.
[16g	get	.	.	.	.	.	D	.	.
=39	=39	=39	=39	=39	=39	=39	=39	=39	=39
16g]	_	1r	.	1E-Mm	.	voice	.	97.047	E-:13
16~d-	ah	.	.	.	.	.	.	.	.
8r	.	.	.	.	.	.	.	.	.
4r	.	.	.	.	.	.	.	.	.
4r	.	.	.	.	.	.	.	.	.
16r	.	.	.	.	.	.	.	.	.
16~g-	Ya	.	.	.	.	.	.	.	.
16a-	give	.	.	.	.	.	.	.	.
16g-	me	.	.	.	.	.	.	.	.
=40	=40	=40	=40	=40	=40	=40	=40	=40	=40
8a-	fe-	1r	.	1E-Mm	newline	voice	.	99.264	E-:13
16e-	-ver	.	.	.	.	.	.	.	.
16r	.	.	.	.	.	.	.	.	.
4r	.	.	.	.	.	.	.	.	.
4.r	.	.	.	.	.	.	.	.	.
16e-	and	.	.	.	.	.	.	.	.
16d-	a	.	.	.	.	.	.	.	.
=41	=41	=41	=41	=41	=41	=41	=41	=41	=41
16g-	cold	1r	.	1E-Mm	.	voice	.	101.483	E-:13
8e-	_	.	.	.	.	.	.	.	.
[16d-	sweat	.	.	.	.	.	D	.	.
16d-]	_	.	.	.	.	.	.	.	.
16r	.	.	.	.	.	.	.	.	.
8r	.	.	.	.	.	.	.	.	.
4r	.	.	.	.	.	.	.	.	.
8.r	.	.	.	.	.	.	.	.	.
16d-	The	.	.	.	.	.	.	.	.
=42	=42	=42	=42	=42	=42	=42	=42	=42	=42
16e-	way	1r	.	1E-Mm	newline	voice	.	103.702	E-:13
8e-	I	.	.	.	.	.	.	.	.
[16e-	like	.	.	.	.	.	.	.	.
16e-]	_	.	.	.	.	.	.	.	.
16d-	it	.	.	.	.	.	.	.	.
8r	.	.	.	.	.	.	.	.	.
4.r	.	.	.	.	.	.	.	.	.
16d-	There's	.	.	.	.	.	.	.	.
16d-	the	.	.	.	.	.	.	.	.
=43	=43	=43	=43	=43	=43	=43	=43	=43	=43
16e-	way	1r	.	1E-Mm	.	voice	.	105.899	E-:13
16e-	it	.	.	.	.	.	.	.	.
16r	.	.	.	.	.	.	.	.	.
[16g	is	.	.	.	.	.	E	.	.
16g]	_	.	.	.	.	.	.	.	.
16g	_	.	.	.	.	.	.	.	.
8r	.	.	.	.	.	.	.	.	.
4r	.	.	.	.	.	.	.	.	.
8.r	.	.	.	.	.	.	.	.	.
[16a	I've	.	.	.	.	.	.	.	.
=44	=44	=44	=44	=44	=44	=44	=44	=44	=44
16a]	_	1r	.	1E-Mm	newline	voice	.	108.096	E-:13
8a-	got	.	.	.	.	.	.	.	.
16g-	mine	.	.	.	.	.	.	.	.
16e-	_	.	.	.	.	.	.	.	.
16~e-	uh	.	.	.	.	.	.	.	.
8r	.	.	.	.	.	.	.	.	.
4.r	.	.	.	.	.	.	.	.	.
16e-	don't	.	.	.	.	.	.	.	.
[16e-	wor-	.	.	.	.	.	.	.	.
=45	=45	=45	=45	=45	=45	=45	=45	=45	=45
16e-]	_	1r	.	1E-Mm	.	voice	.	110.323	E-:13
16e-	-ry	.	.	.	.	.	.	.	.
16e-	'bout	.	.	.	.	.	.	.	.
[16e-	his	.	.	.	.	.	E	.	.
16e-]	_	.	.	.	.	.	.	.	.
16~d-	uh	.	.	.	.	.	.	.	.
8r	.	.	.	.	.	.	.	.	.
4.r	.	.	.	.	.	.	.	.	.
16e-	Get	.	.	.	.	.	.	.	.
[16e-	up	.	.	.	.	.	.	.	.
=46	=46	=46	=46	=46	=46	=46	=46	=46	=46
16e-]	_	4r	.	1E-Mm	newline	voice	.	112.551	E-:13
16~d-	ah	.	.	.	.	.	.	.	.
8r	.	.	.	.	.	.	.	.	.
4r	.	16d-	Get	.	.	.	.	.	.
.	.	8d-	on	.	.	.	.	.	.
.	.	16d-	up	.	.	.	.	.	.
4r	.	2r	.	.	.	.	.	.	.
16e-	Stay	.	.	.	.	.	.	.	.
8e-	on	.	.	.	.	.	.	.	.
16e-	the	.	.	.	.	.	.	.	.
=47	=47	=47	=47	=47	=47	=47	=47	=47	=47
8g-	scene	4r	.	1E-Mm	.	voice	A	114.74	E-:13
16~d-	uh	.	.	.	.	.	.	.	.
16r	.	.	.	.	.	.	.	.	.
4r	.	16d-	Get	.	.	.	.	.	.
.	.	8d-	on	.	.	.	.	.	.
.	.	16d-	up	.	.	.	.	.	.
8r	.	2r	.	.	.	.	.	.	.
16~e-	like	.	.	.	.	.	.	.	.
16~e-	a	.	.	.	.	.	.	.	.
8f	sex	.	.	.	.	.	.	.	.
16d-	ma-	.	.	.	.	.	.	.	.
[16e-	-chine	.	.	.	.	.	A	.	.
=48	=48	=48	=48	=48	=48	=48	=48	=48	=48
16e-]	_	4r	.	1E-Mm	newline	voice	.	116.93	E-:13
16~B-	uh	.	.	.	.	.	.	.	.
8r	.	.	.	.	.	.	.	.	.
4r	.	16d-	Get	.	.	.	.	.	.
.	.	8d-	on	.	.	.	.	.	.
.	.	16d-	up	.	.	.	.	.	.
4.r	.	2r	.	.	.	.	.	.	.
16f	Get	.	.	.	.	.	.	.	.
[16g-	up	.	.	.	.	.	.	.	.
=49	=49	=49	=49	=49	=49	=49	=49	=49	=49
16g-]	_	4r	.	1E-Mm	.	voice	.	119.166	E-:13
16~e-	ah	.	.	.	.	.	.	.	.
8r	.	.	.	.	.	.	.	.	.
4r	.	16d-	Get	.	.	.	.	.	.
.	.	8d-	on	.	.	.	.	.	.
.	.	16d-	up	.	.	.	.	.	.
4.r	.	2r	.	.	.	.	.	.	.
16e-	Get	.	.	.	.	.	.	.	.
[16e-	up	.	.	.	.	.	.	.	.
=50	=50	=50	=50	=50	=50	=50	=50	=50	=50
16e-]	_	4r	.	1E-Mm	newline	voice	.	121.402	E-:13
16~d-	ah	.	.	.	.	.	.	.	.
8r	.	.	.	.	.	.	.	.	.
4r	.	16d-	Get	.	.	.	.	.	.
.	.	8d-	on	.	.	.	.	.	.
.	.	16d-	up	.	.	.	.	.	.
2r	.	2r	.	.	.	.	.	.	.
=51	=51	=51	=51	=51	=51	=51	=51	=51	=51
1r	.	1r	.	1E-Mm	.	voice	.	123.594	E-:13
=52	=52	=52	=52	=52	=52	=52	=52	=52	=52
1r	.	1r	.	1E-Mm	newline	voice	.	125.786	E-:13
=53	=53	=53	=53	=53	=53	=53	=53	=53	=53
1r	.	1r	.	1E-Mm	.	voice	.	128.022	E-:13
=54	=54	=54	=54	=54	=54	=54	=54	=54	=54
2r	.	1r	.	1E-Mm	newline	voice	.	130.258	E-:13
8r	.	.	.	.	.	.	.	.	.
16~cc	Hit	.	.	.	.	.	.	.	.
16~b-	me	.	.	.	.	.	.	.	.
4~g	now!	.	.	.	.	.	.	.	.
=55	=55	=55	=55	=55	=55	=55	=55	=55	=55
*>Letter>C	*>Letter>C	*>Letter>C	*>Letter>C	*>Letter>C	*>Letter>C	*>Letter>C	*>Letter>C	*>Letter>C	*>Letter>C
*>Label>Bridge	*>Label>Bridge	*>Label>Bridge	*>Label>Bridge	*>Label>Bridge	*>Label>Bridge	*>Label>Bridge	*>Label>Bridge	*>Label>Bridge	*>Label>Bridge
2r	.	1r	.	1A-Mm	newline	voice	.	132.49	A-:13
4.r	.	.	.	.	.	.	.	.	.
16~B-	Come	.	.	.	.	.	.	.	.
[16~B-	on	.	.	.	.	.	.	.	.
=56	=56	=56	=56	=56	=56	=56	=56	=56	=56
16~B-]	_	1r	.	1A-Mm	.	voice	.	134.699	A-:13
16~B-	now	.	.	.	.	.	.	.	.
8r	.	.	.	.	.	.	.	.	.
4r	.	.	.	.	.	.	.	.	.
4r	.	.	.	.	.	.	.	.	.
16e-	Stay	.	.	.	.	.	.	.	.
8e-	on	.	.	.	.	.	.	.	.
16e-	the	.	.	.	.	.	.	.	.
=57	=57	=57	=57	=57	=57	=57	=57	=57	=57
8g-	scene	1r	.	1A-Mm	newline	voice	A	136.908	A-:13
16~d-	uh	.	.	.	.	.	.	.	.
16r	.	.	.	.	.	.	.	.	.
4r	.	.	.	.	.	.	.	.	.
16r	.	.	.	.	.	.	.	.	.
16~d-	Uh	.	.	.	.	.	.	.	.
16~e-	like	.	.	.	.	.	.	.	.
16~e-	a	.	.	.	.	.	.	.	.
8~f	sex	.	.	.	.	.	.	.	.
16e-	ma-	.	.	.	.	.	.	.	.
[16e-	-chine	.	.	.	.	.	A	.	.
=58	=58	=58	=58	=58	=58	=58	=58	=58	=58
16e-]	_	1r	.	1A-Mm	.	voice	.	139.093	A-:13
16~d-	uh	.	.	.	.	.	.	.	.
8r	.	.	.	.	.	.	.	.	.
4r	.	.	.	.	.	.	.	.	.
8.r	.	.	.	.	.	.	.	.	.
16~g-	The	.	.	.	.	.	.	.	.
16g-	way	.	.	.	.	.	.	.	.
8g-	I	.	.	.	.	.	.	.	.
[16a-	like	.	.	.	.	.	.	.	.
=59	=59	=59	=59	=59	=59	=59	=59	=59	=59
16a-]	_	1r	.	1A-Mm	newline	voice	.	141.279	A-:13
16b-	it	.	.	.	.	.	.	.	.
8r	.	.	.	.	.	.	.	.	.
4r	.	.	.	.	.	.	.	.	.
8r	.	.	.	.	.	.	.	.	.
16~d-	is	.	.	.	.	.	.	.	.
16~d-	the	.	.	.	.	.	.	.	.
16e-	way	.	.	.	.	.	.	.	.
16e-	it	.	.	.	.	.	.	.	.
16r	.	.	.	.	.	.	.	.	.
[16g-	is	.	.	.	.	.	E	.	.
=60	=60	=60	=60	=60	=60	=60	=60	=60	=60
8g-]	_	1r	.	1A-Mm	.	voice	.	143.499	A-:13
8r	.	.	.	.	.	.	.	.	.
4r	.	.	.	.	.	.	.	.	.
8r	.	.	.	.	.	.	.	.	.
16r	.	.	.	.	.	.	.	.	.
[16e-	I	.	.	.	.	.	.	.	.
16e-]	_	.	.	.	.	.	.	.	.
8e-	got	.	.	.	.	.	.	.	.
[16~d-	my	.	.	.	.	.	.	.	.
=61	=61	=61	=61	=61	=61	=61	=61	=61	=61
16~d-]	_	1r	.	1A-Mm	newline	voice	.	145.719	A-:13
16r	.	.	.	.	.	.	.	.	.
16~g-	Dig	.	.	.	.	.	.	.	.
16~d-	it!	.	.	.	.	.	.	.	.
4r	.	.	.	.	.	.	.	.	.
8.r	.	.	.	.	.	.	.	.	.
[16e-	He	.	.	.	.	.	.	.	.
16e-]	_	.	.	.	.	.	.	.	.
8e-	got	.	.	.	.	.	.	.	.
[16~d-	his	.	.	.	.	.	E	.	.
=62	=62	=62	=62	=62	=62	=62	=62	=62	=62
8~d-]	_	1r	.	1A-Mm	.	voice	.	147.91	A-:13
8r	.	.	.	.	.	.	.	.	.
4r	.	.	.	.	.	.	.	.	.
4r	.	.	.	.	.	.	.	.	.
16e-	Stay	.	.	.	.	.	.	.	.
8e-	on	.	.	.	.	.	.	.	.
16e-	the	.	.	.	.	.	.	.	.
=63	=63	=63	=63	=63	=63	=63	=63	=63	=63
8e-	scene	1r	.	1A-Mm	newline	voice	A	150.101	A-:13
16~d-	uh	.	.	.	.	.	.	.	.
16r	.	.	.	.	.	.	.	.	.
4r	.	.	.	.	.	.	.	.	.
16r	.	.	.	.	.	.	.	.	.
16~d-	uh	.	.	.	.	.	.	.	.
16~e-	like	.	.	.	.	.	.	.	.
16~d-	a	.	.	.	.	.	.	.	.
16f	lov-	.	.	.	.	.	.	.	.
16e-	-in'	.	.	.	.	.	.	.	.
16d-	ma-	.	.	.	.	.	.	.	.
[16e-	-chine	.	.	.	.	.	A	.	.
=64	=64	=64	=64	=64	=64	=64	=64	=64	=64
16e-]	_	1r	.	1A-Mm	.	voice	.	152.298	A-:13
16~B-	uh	.	.	.	.	.	.	.	.
8r	.	.	.	.	.	.	.	.	.
4r	.	.	.	.	.	.	.	.	.
4r	.	.	.	.	.	.	.	.	.
16g-	Stay	.	.	.	.	.	.	.	.
8a-	on	.	.	.	.	.	.	.	.
16a	the	.	.	.	.	.	.	.	.
=65	=65	=65	=65	=65	=65	=65	=65	=65	=65
8b-	scene	1r	.	1A-Mm	newline	voice	A	154.495	A-:13
16~g-	uh	.	.	.	.	.	.	.	.
16r	.	.	.	.	.	.	.	.	.
4r	.	.	.	.	.	.	.	.	.
16r	.	.	.	.	.	.	.	.	.
16~d-	uh	.	.	.	.	.	.	.	.
16~e-	like	.	.	.	.	.	.	.	.
16~d-	a	.	.	.	.	.	.	.	.
16f	lov-	.	.	.	.	.	.	.	.
16e-	-in'	.	.	.	.	.	.	.	.
16d-	ma-	.	.	.	.	.	.	.	.
[16e-	-chine	.	.	.	.	.	A	.	.
=66	=66	=66	=66	=66	=66	=66	=66	=66	=66
8e-]	_	1r	.	1A-Mm	.	voice	.	156.672	A-:13
8r	.	.	.	.	.	.	.	.	.
4r	.	.	.	.	.	.	.	.	.
4r	.	.	.	.	.	.	.	.	.
16b-	Stay	.	.	.	.	.	.	.	.
8a-	on	.	.	.	.	.	.	.	.
16g-	the	.	.	.	.	.	.	.	.
=67	=67	=67	=67	=67	=67	=67	=67	=67	=67
8a-	scene	1r	.	1A-Mm	newline	voice	A	158.85	A-:13
16~e-	uh	.	.	.	.	.	.	.	.
16r	.	.	.	.	.	.	.	.	.
4r	.	.	.	.	.	.	.	.	.
2r	.	.	.	.	.	.	.	.	.
=68	=68	=68	=68	=68	=68	=68	=68	=68	=68
1r	.	1r	.	1A-Mm	.	voice	.	161.033	A-:13
=69	=69	=69	=69	=69	=69	=69	=69	=69	=69
1r	.	1r	.	1A-Mm	newline	voice	.	163.215	A-:13
=70	=70	=70	=70	=70	=70	=70	=70	=70	=70
2r	.	1r	.	1A-Mm	.	voice	.	165.405	A-:13
8r	.	.	.	.	.	.	.	.	.
16~b-	Hit	.	.	.	.	.	.	.	.
16~b-	it	.	.	.	.	.	.	.	.
8~a-	now!	.	.	.	.	.	.	.	.
8r	.	.	.	.	.	.	.	.	.
=71	=71	=71	=71	=71	=71	=71	=71	=71	=71
*>Letter>D	*>Letter>D	*>Letter>D	*>Letter>D	*>Letter>D	*>Letter>D	*>Letter>D	*>Letter>D	*>Letter>D	*>Letter>D
*>Label>Trans	*>Label>Trans	*>Label>Trans	*>Label>Trans	*>Label>Trans	*>Label>Trans	*>Label>Trans	*>Label>Trans	*>Label>Trans	*>Label>Trans
1r	.	1r	.	1A-Mm	newline	brass	.	167.595	A-:13
=72	=72	=72	=72	=72	=72	=72	=72	=72	=72
*>Letter>B2	*>Letter>B2	*>Letter>B2	*>Letter>B2	*>Letter>B2	*>Letter>B2	*>Letter>B2	*>Letter>B2	*>Letter>B2	*>Letter>B2
*>Label>Verse	*>Label>Verse	*>Label>Verse	*>Label>Verse	*>Label>Verse	*>Label>Verse	*>Label>Verse	*>Label>Verse	*>Label>Verse	*>Label>Verse
16g-	Get	2r	.	1E-Mm	newline	voice	.	169.945	E-:13
8g-	on	.	.	.	.	.	.	.	.
16g-	up	.	.	.	.	.	.	.	.
4r	.	.	.	.	.	.	.	.	.
4.r	.	16e-	Get	.	.	.	.	.	.
.	.	8e-	on	.	.	.	.	.	.
.	.	16e-	up	.	.	.	.	.	.
.	.	4r	.	.	.	.	.	.	.
16e-	Get	.	.	.	.	.	.	.	.
[16e-	up	.	.	.	.	.	.	.	.
=73	=73	=73	=73	=73	=73	=73	=73	=73	=73
16e-]	_	4r	.	1E-Mm	.	voice	.	172.184	E-:13
16~d-	ah	.	.	.	.	.	.	.	.
8r	.	.	.	.	.	.	.	.	.
4r	.	16e-	Get	.	.	.	.	.	.
.	.	8e-	on	.	.	.	.	.	.
.	.	16e-	up	.	.	.	.	.	.
4.r	.	2r	.	.	.	.	.	.	.
16g-	Get	.	.	.	.	.	.	.	.
[16a-	up	.	.	.	.	.	.	.	.
=74	=74	=74	=74	=74	=74	=74	=74	=74	=74
16a-]	_	4r	.	1E-Mm	newline	voice	.	174.423	E-:13
16~e-	ah	.	.	.	.	.	.	.	.
8r	.	.	.	.	.	.	.	.	.
4r	.	16e-	Get	.	.	.	.	.	.
.	.	8e-	on	.	.	.	.	.	.
.	.	16e-	up	.	.	.	.	.	.
4r	.	2r	.	.	.	.	.	.	.
16e-	Get	.	.	.	.	.	.	.	.
8e-	on	.	.	.	.	.	.	.	.
16e-	up	.	.	.	.	.	.	.	.
=75	=75	=75	=75	=75	=75	=75	=75	=75	=75
2r	.	4r	.	1E-Mm	.	voice	.	176.632	E-:13
.	.	16e-	Get	.	.	.	.	.	.
.	.	8e-	on	.	.	.	.	.	.
.	.	16e-	up	.	.	.	.	.	.
4r	.	2r	.	.	.	.	.	.	.
16e-	Stay	.	.	.	.	.	.	.	.
8e-	on	.	.	.	.	.	.	.	.
16e-	the	.	.	.	.	.	.	.	.
=76	=76	=76	=76	=76	=76	=76	=76	=76	=76
8e-	scene	4r	.	1E-Mm	newline	voice	A	178.841	E-:13
16~B-	uh	.	.	.	.	.	.	.	.
16r	.	.	.	.	.	.	.	.	.
4r	.	16e-	Get	.	.	.	.	.	.
.	.	8e-	on	.	.	.	.	.	.
.	.	16e-	up	.	.	.	.	.	.
16r	.	2r	.	.	.	.	.	.	.
16~d-	uh	.	.	.	.	.	.	.	.
16~e-	like	.	.	.	.	.	.	.	.
16~d-	a	.	.	.	.	.	.	.	.
16f	lov-	.	.	.	.	.	.	.	.
16e-	-in'	.	.	.	.	.	.	.	.
16d-	ma-	.	.	.	.	.	.	.	.
[16e-	-chine	.	.	.	.	.	A	.	.
=77	=77	=77	=77	=77	=77	=77	=77	=77	=77
16e-]	_	4r	.	1E-Mm	.	voice	.	181.034	E-:13
16~B-	uh	.	.	.	.	.	.	.	.
8r	.	.	.	.	.	.	.	.	.
4r	.	16e-	Get	.	.	.	.	.	.
.	.	8e-	on	.	.	.	.	.	.
.	.	16e-	up	.	.	.	.	.	.
4.r	.	2r	.	.	.	.	.	.	.
16b-	Get	.	.	.	.	.	.	.	.
[16a	up	.	.	.	.	.	.	.	.
=78	=78	=78	=78	=78	=78	=78	=78	=78	=78
16a]	_	4r	.	1E-Mm	newline	voice	.	183.227	E-:13
16~e-	ah	.	.	.	.	.	.	.	.
8r	.	.	.	.	.	.	.	.	.
4r	.	16e-	Get	.	.	.	.	.	.
.	.	8e-	on	.	.	.	.	.	.
.	.	16e-	up	.	.	.	.	.	.
4r	.	2r	.	.	.	.	.	.	.
8r	.	.	.	.	.	.	.	.	.
[8~g-	Taste	.	.	.	.	.	.	.	.
=79	=79	=79	=79	=79	=79	=79	=79	=79	=79
16~g-]	_	4r	.	1E-Mm	.	voice	.	185.474	E-:13
16~B-	ah	.	.	.	.	.	.	.	.
8r	.	.	.	.	.	.	.	.	.
4r	.	16e-	Get	.	.	.	.	.	.
.	.	8e-	on	.	.	.	.	.	.
.	.	16e-	up	.	.	.	.	.	.
4r	.	2r	.	.	.	.	.	.	.
16r	.	.	.	.	.	.	.	.	.
16~B-	Uh	.	.	.	.	.	.	.	.
16e-	pi-	.	.	.	.	.	.	.	.
[16d	-an-	.	.	.	.	.	.	.	.
=80	=80	=80	=80	=80	=80	=80	=80	=80	=80
16d]	_	4r	.	1E-Mm	newline	voice	.	187.721	E-:13
16~G-	-a	.	.	.	.	.	.	.	.
8r	.	.	.	.	.	.	.	.	.
4r	.	16e-	Get	.	.	.	.	.	.
.	.	8e-	on	.	.	.	.	.	.
.	.	16e-	up	.	.	.	.	.	.
4r	.	2r	.	.	.	.	.	.	.
8r	.	.	.	.	.	.	.	.	.
[8~g-	Take	.	.	.	.	.	.	.	.
=81	=81	=81	=81	=81	=81	=81	=81	=81	=81
16~g-]	_	4r	.	1E-Mm	.	voice	.	189.918	E-:13
16~B-	me	.	.	.	.	.	.	.	.
8r	.	.	.	.	.	.	.	.	.
4r	.	16e-	Get	.	.	.	.	.	.
.	.	8e-	on	.	.	.	.	.	.
.	.	16e-	up	.	.	.	.	.	.
4r	.	2r	.	.	.	.	.	.	.
8r	.	.	.	.	.	.	.	.	.
16e-	pi-	.	.	.	.	.	.	.	.
[16d-	-an-	.	.	.	.	.	.	.	.
=82	=82	=82	=82	=82	=82	=82	=82	=82	=82
16d-]	_	4r	.	1E-Mm	newline	voice	.	192.115	E-:13
16~G-	-a	.	.	.	.	.	.	.	.
8r	.	.	.	.	.	.	.	.	.
4r	.	16e-	Get	.	.	.	.	.	.
.	.	8e-	on	.	.	.	.	.	.
.	.	16e-	up	.	.	.	.	.	.
2r	.	2r	.	.	.	.	.	.	.
=83	=83	=83	=83	=83	=83	=83	=83	=83	=83
1r	.	1r	.	1E-Mm	newline	piano	.	194.332	E-:13
=84	=84	=84	=84	=84	=84	=84	=84	=84	=84
1r	.	1r	.	1E-Mm	.	piano	.	196.619	E-:13
=85	=85	=85	=85	=85	=85	=85	=85	=85	=85
1r	.	1r	.	1E-Mm	newline	piano	.	198.906	E-:13
=86	=86	=86	=86	=86	=86	=86	=86	=86	=86
1r	.	1r	.	1E-Mm	.	piano	.	201.127	E-:13
=87	=87	=87	=87	=87	=87	=87	=87	=87	=87
1r	.	1r	.	1E-Mm	newline	piano	.	203.348	E-:13
=88	=88	=88	=88	=88	=88	=88	=88	=88	=88
1r	.	1r	.	1E-Mm	.	piano	.	205.594	E-:13
=89	=89	=89	=89	=89	=89	=89	=89	=89	=89
1r	.	1r	.	1E-Mm	newline	piano	.	207.841	E-:13
=90	=90	=90	=90	=90	=90	=90	=90	=90	=90
2r	.	1r	.	1E-Mm	.	piano	.	210.04	E-:13
4.r	.	.	.	.	.	.	.	.	.
16g-	Get	.	.	.	.	.	.	.	.
[16f	up	.	.	.	.	.	.	.	.
=91	=91	=91	=91	=91	=91	=91	=91	=91	=91
16f]	_	4r	.	1E-Mm	newline	voice	.	212.24	E-:13
16~e-	ah	.	.	.	.	.	.	.	.
8r	.	.	.	.	.	.	.	.	.
4r	.	16e-	Get	.	.	.	.	.	.
.	.	8e-	on	.	.	.	.	.	.
.	.	16e-	up	.	.	.	.	.	.
4.r	.	2r	.	.	.	.	.	.	.
16b-	Get	.	.	.	.	.	.	.	.
[16b-	up	.	.	.	.	.	.	.	.
=92	=92	=92	=92	=92	=92	=92	=92	=92	=92
16b-]	_	4r	.	1E-Mm	.	voice	.	214.49	E-:13
16~g-	ah	.	.	.	.	.	.	.	.
8r	.	.	.	.	.	.	.	.	.
4r	.	16e-	Get	.	.	.	.	.	.
.	.	8e-	on	.	.	.	.	.	.
.	.	16e-	up	.	.	.	.	.	.
4r	.	2r	.	.	.	.	.	.	.
16e-	Stay	.	.	.	.	.	.	.	.
8e-	on	.	.	.	.	.	.	.	.
16e-	the	.	.	.	.	.	.	.	.
=93	=93	=93	=93	=93	=93	=93	=93	=93	=93
8e-	scene	4r	.	1E-Mm	newline	voice	A	216.741	E-:13
8r	.	.	.	.	.	.	.	.	.
4r	.	16e-	Get	.	.	.	.	.	.
.	.	8e-	on	.	.	.	.	.	.
.	.	16e-	up	.	.	.	.	.	.
16r	.	2r	.	.	.	.	.	.	.
16~d-	Uh	.	.	.	.	.	.	.	.
16~e-	like	.	.	.	.	.	.	.	.
16~e-	a	.	.	.	.	.	.	.	.
8f	sex	.	.	.	.	.	.	.	.
16e-	ma-	.	.	.	.	.	.	.	.
[16e-	-chine	.	.	.	.	.	A	.	.
=94	=94	=94	=94	=94	=94	=94	=94	=94	=94
16e-]	_	4r	.	1E-Mm	.	voice	.	218.942	E-:13
16~d-	uh	.	.	.	.	.	.	.	.
8r	.	.	.	.	.	.	.	.	.
4r	.	16e-	Get	.	.	.	.	.	.
.	.	8e-	on	.	.	.	.	.	.
.	.	16e-	up	.	.	.	.	.	.
8.r	.	2r	.	.	.	.	.	.	.
16~d-	You	.	.	.	.	.	.	.	.
16~e-	got-	.	.	.	.	.	.	.	.
16~d-	-ta	.	.	.	.	.	.	.	.
16~e-	have	.	.	.	.	.	.	.	.
16~d-	the	.	.	.	.	.	.	.	.
=95	=95	=95	=95	=95	=95	=95	=95	=95	=95
8e-	fee-	4r	.	1E-Mm	newline	voice	.	221.142	E-:13
16~d-	-lin'	.	.	.	.	.	.	.	.
16r	.	.	.	.	.	.	.	.	.
4r	.	16e-	Get	.	.	.	.	.	.
.	.	8e-	on	.	.	.	.	.	.
.	.	16e-	up	.	.	.	.	.	.
4r	.	2r	.	.	.	.	.	.	.
16d-	sure	.	.	.	.	.	.	.	.
16d-	as	.	.	.	.	.	.	.	.
16d-	you're	.	.	.	.	.	.	.	.
[16g-	born	.	.	.	.	.	.	.	.
=96	=96	=96	=96	=96	=96	=96	=96	=96	=96
8g-]	_	4r	.	1E-Mm	.	voice	.	223.355	E-:13
8r	.	.	.	.	.	.	.	.	.
4r	.	16e-	Get	.	.	.	.	.	.
.	.	8e-	on	.	.	.	.	.	.
.	.	16e-	up	.	.	.	.	.	.
4.r	.	2r	.	.	.	.	.	.	.
16b-	Get	.	.	.	.	.	.	.	.
16b-	it	.	.	.	.	.	.	.	.
=97	=97	=97	=97	=97	=97	=97	=97	=97	=97
16r	.	1r	.	1E-Mm	newline	voice	.	225.568	E-:13
16~d	t	.	.	.	.	.	.	.	.
16r	.	.	.	.	.	.	.	.	.
16d	to-	.	.	.	.	.	.	.	.
16e-	-ge-	.	.	.	.	.	.	.	.
16d	-ther	.	.	.	.	.	.	.	.
8r	.	.	.	.	.	.	.	.	.
4r	.	.	.	.	.	.	.	.	.
8r	.	.	.	.	.	.	.	.	.
16e-	Right	.	.	.	.	.	.	.	.
[16e-	on	.	.	.	.	.	.	.	.
=98	=98	=98	=98	=98	=98	=98	=98	=98	=98
16e-]	_	1r	.	1E-Mm	.	voice	.	227.791	E-:13
8e-	right	.	.	.	.	.	.	.	.
[16d-	on	.	.	.	.	.	.	.	.
16d-]	_	.	.	.	.	.	.	.	.
16r	.	.	.	.	.	.	.	.	.
8r	.	.	.	.	.	.	.	.	.
4.r	.	.	.	.	.	.	.	.	.
16g-	Right	.	.	.	.	.	.	.	.
[16g-	on	.	.	.	.	.	.	.	.
=99	=99	=99	=99	=99	=99	=99	=99	=99	=99
8g-]	_	4.r	.	1E-Mm	newline	voice	.	230.014	E-:13
16g-	right	.	.	.	.	.	.	.	.
[16e-	on	.	.	.	.	.	.	.	.
8e-]	_	.	.	.	.	.	.	.	.
8r	.	16e-	Right	.	.	.	.	.	.
.	.	[16e-	on	.	.	.	.	.	.
4.r	.	16e-]	_	.	.	.	.	.	.
.	.	16e-	n'	.	.	.	.	.	.
.	.	16e-	Right	.	.	.	.	.	.
.	.	[16d-	on	.	.	.	.	.	.
.	.	16d-]	_	.	.	.	.	.	.
.	.	16r	.	.	.	.	.	.	.
16g-	Right	8r	.	.	.	.	.	.	.
[16a-	on	.	.	.	.	.	.	.	.
=100	=100	=100	=100	=100	=100	=100	=100	=100	=100
16a-]	_	4.r	.	1E-Mm	.	voice	.	232.276	E-:13
16e-	n'	.	.	.	.	.	.	.	.
16g-	right	.	.	.	.	.	.	.	.
[16g-	on	.	.	.	.	.	.	.	.
16g-]	_	.	.	.	.	.	.	.	.
16r	.	.	.	.	.	.	.	.	.
8r	.	16e-	Right	.	.	.	.	.	.
.	.	[16e-	on	.	.	.	.	.	.
4r	.	16e-]	_	.	.	.	.	.	.
.	.	16e-	n'	.	.	.	.	.	.
.	.	16e-	Right	.	.	.	.	.	.
.	.	[16e-	on	.	.	.	.	.	.
8r	.	8e-]	_	.	.	.	.	.	.
16a-	Right	8r	.	.	.	.	.	.	.
[16a	on	.	.	.	.	.	.	.	.
=101	=101	=101	=101	=101	=101	=101	=101	=101	=101
16a]	_	4.r	.	1E-Mm	newline	voice	.	234.537	E-:13
16~e-	n'	.	.	.	.	.	.	.	.
16g-	right	.	.	.	.	.	.	.	.
[16g-	on	.	.	.	.	.	.	.	.
8g-]	_	.	.	.	.	.	.	.	.
8r	.	16e-	Right	.	.	.	.	.	.
.	.	[16e-	on	.	.	.	.	.	.
4.r	.	16e-]	_	.	.	.	.	.	.
.	.	16e-	n'	.	.	.	.	.	.
.	.	16e-	Right	.	.	.	.	.	.
.	.	[16d-	on	.	.	.	.	.	.
.	.	16d-]	_	.	.	.	.	.	.
.	.	16r	.	.	.	.	.	.	.
16e-	Get	8r	.	.	.	.	.	.	.
[16e-	up	.	.	.	.	.	.	.	.
=102	=102	=102	=102	=102	=102	=102	=102	=102	=102
16e-]	_	4r	.	1E-Mm	.	voice	.	236.76	E-:13
16~d-	ah	.	.	.	.	.	.	.	.
8r	.	.	.	.	.	.	.	.	.
4r	.	16e-	Get	.	.	.	.	.	.
.	.	8e-	on	.	.	.	.	.	.
.	.	16e-	up	.	.	.	.	.	.
4.r	.	2r	.	.	.	.	.	.	.
16g	Get	.	.	.	.	.	.	.	.
[16a-	up	.	.	.	.	.	.	.	.
=103	=103	=103	=103	=103	=103	=103	=103	=103	=103
16a-]	_	4r	.	1E-Mm	newline	voice	.	238.984	E-:13
16~e-	ah	.	.	.	.	.	.	.	.
8r	.	.	.	.	.	.	.	.	.
4r	.	16e-	Get	.	.	.	.	.	.
.	.	8e-	on	.	.	.	.	.	.
.	.	16e-	up	.	.	.	.	.	.
8r	.	2r	.	.	.	.	.	.	.
16~d-	and	.	.	.	.	.	.	.	.
[16~e-	then	.	.	.	.	.	.	.	.
8~e-]	_	.	.	.	.	.	.	.	.
8r	.	.	.	.	.	.	.	.	.
=104	=104	=104	=104	=104	=104	=104	=104	=104	=104
8g-	Shake	8e-	Shake	1E-Mm	.	voice	.	241.232	E-:13
8g-	your	8e-	your	.	.	.	.	.	.
8g-	mo-	8e-	mo-	.	.	.	.	.	.
16g-	-ney	16e-	-ney	.	.	.	.	.	.
[16g-	ma-	[16e-	ma-	.	.	.	.	.	.
16g-]	_	16e-]	_	.	.	.	.	.	.
16r	.	16r	.	.	.	.	.	.	.
16g-	-ker	16e-	-ker	.	.	.	.	.	.
16r	.	16r	.	.	.	.	.	.	.
4r	.	4r	.	.	.	.	.	.	.
=105	=105	=105	=105	=105	=105	=105	=105	=105	=105
8g-	Shake	8e-	Shake	1E-Mm	newline	voice	.	243.48	E-:13
8g-	your	8e-	your	.	.	.	.	.	.
8g-	mo-	8e-	mo-	.	.	.	.	.	.
16g-	-ney	16e-	-ney	.	.	.	.	.	.
[16g-	ma-	[16e-	ma-	.	.	.	.	.	.
16g-]	_	16e-]	_	.	.	.	.	.	.
16r	.	16r	.	.	.	.	.	.	.
16g-	-ker	16e-	-ker	.	.	.	.	.	.
16r	.	16r	.	.	.	.	.	.	.
4r	.	4r	.	.	.	.	.	.	.
=106	=106	=106	=106	=106	=106	=106	=106	=106	=106
8g-	Shake	8e-	Shake	1E-Mm	.	voice	.	245.691	E-:13
8g-	your	8e-	your	.	.	.	.	.	.
8g-	mo-	8e-	mo-	.	.	.	.	.	.
16g-	-ney	16e-	-ney	.	.	.	.	.	.
[16g-	ma-	[16e-	ma-	.	.	.	.	.	.
16g-]	_	16e-]	_	.	.	.	.	.	.
16r	.	16r	.	.	.	.	.	.	.
16g-	-ker	16e-	-ker	.	.	.	.	.	.
16r	.	16r	.	.	.	.	.	.	.
4r	.	4r	.	.	.	.	.	.	.
=107	=107	=107	=107	=107	=107	=107	=107	=107	=107
8g-	Shake	8e-	Shake	1E-Mm	newline	voice	.	247.902	E-:13
8g-	your	8e-	your	.	.	.	.	.	.
8g-	mo-	8e-	mo-	.	.	.	.	.	.
16g-	-ney	16e-	-ney	.	.	.	.	.	.
[16g-	ma-	[16e-	ma-	.	.	.	.	.	.
16g-]	_	16e-]	_	.	.	.	.	.	.
16r	.	16r	.	.	.	.	.	.	.
16g-	-ker	16e-	-ker	.	.	.	.	.	.
16r	.	16r	.	.	.	.	.	.	.
4r	.	4r	.	.	.	.	.	.	.
=108	=108	=108	=108	=108	=108	=108	=108	=108	=108
8g-	Shake	8e-	Shake	1E-Mm	.	voice	.	250.124	E-:13
8g-	your	8e-	your	.	.	.	.	.	.
8g-	mo-	8e-	mo-	.	.	.	.	.	.
16g-	-ney	16e-	-ney	.	.	.	.	.	.
[16g-	ma-	[16e-	ma-	.	.	.	.	.	.
16g-]	_	16e-]	_	.	.	.	.	.	.
16r	.	16r	.	.	.	.	.	.	.
16g-	-ker	16e-	-ker	.	.	.	.	.	.
16r	.	16r	.	.	.	.	.	.	.
4r	.	4r	.	.	.	.	.	.	.
=109	=109	=109	=109	=109	=109	=109	=109	=109	=109
8g-	Shake	8e-	Shake	1E-Mm	newline	voice	.	252.346	E-:13
8g-	your	8e-	your	.	.	.	.	.	.
8g-	mo-	8e-	mo-	.	.	.	.	.	.
16g-	-ney	16e-	-ney	.	.	.	.	.	.
[16g-	ma-	[16e-	ma-	.	.	.	.	.	.
16g-]	_	16e-]	_	.	.	.	.	.	.
16r	.	16r	.	.	.	.	.	.	.
16g-	-ker	16e-	-ker	.	.	.	.	.	.
16r	.	16r	.	.	.	.	.	.	.
4r	.	4r	.	.	.	.	.	.	.
=110	=110	=110	=110	=110	=110	=110	=110	=110	=110
8g-	Shake	8e-	Shake	1E-Mm	.	voice	.	254.573	E-:13
8g-	your	8e-	your	.	.	.	.	.	.
8g-	mo-	8e-	mo-	.	.	.	.	.	.
16g-	-ney	16e-	-ney	.	.	.	.	.	.
[16g-	ma-	[16e-	ma-	.	.	.	.	.	.
16g-]	_	16e-]	_	.	.	.	.	.	.
16r	.	16r	.	.	.	.	.	.	.
16g-	-ker	16e-	-ker	.	.	.	.	.	.
16r	.	16r	.	.	.	.	.	.	.
8r	.	4r	.	.	.	.	.	.	.
16d	Get	.	.	.	.	.	.	.	.
[16e-	up	.	.	.	.	.	.	.	.
=111	=111	=111	=111	=111	=111	=111	=111	=111	=111
16e-]	_	4r	.	1E-Mm	newline	voice	.	256.8	E-:13
16~d-	ah	.	.	.	.	.	.	.	.
8r	.	.	.	.	.	.	.	.	.
4r	.	16e-	Get	.	.	.	.	.	.
.	.	8e-	on	.	.	.	.	.	.
.	.	16e-	up	.	.	.	.	.	.
4.r	.	2r	.	.	.	.	.	.	.
16a-	Get	.	.	.	.	.	.	.	.
[16b-	up	.	.	.	.	.	.	.	.
=112	=112	=112	=112	=112	=112	=112	=112	=112	=112
16b-]	_	4r	.	1E-Mm	.	voice	.	259.027	E-:13
16r	.	.	.	.	.	.	.	.	.
16~e-	ah	.	.	.	.	.	.	.	.
16r	.	.	.	.	.	.	.	.	.
4r	.	16e-	Get	.	.	.	.	.	.
.	.	8e-	on	.	.	.	.	.	.
.	.	16e-	up	.	.	.	.	.	.
4.r	.	2r	.	.	.	.	.	.	.
16g-	Get	.	.	.	.	.	.	.	.
[16a-	up	.	.	.	.	.	.	.	.
=113	=113	=113	=113	=113	=113	=113	=113	=113	=113
16a-]	_	4r	.	1E-Mm	newline	voice	.	261.255	E-:13
16~e-	ah	.	.	.	.	.	.	.	.
8r	.	.	.	.	.	.	.	.	.
4r	.	16e-	Get	.	.	.	.	.	.
.	.	8e-	on	.	.	.	.	.	.
.	.	16e-	up	.	.	.	.	.	.
4.r	.	2r	.	.	.	.	.	.	.
16dd	Get	.	.	.	.	.	.	.	.
[16ee-	up	.	.	.	.	.	.	.	.
=114	=114	=114	=114	=114	=114	=114	=114	=114	=114
8ee-]	_	4r	.	1E-Mm	.	voice	.	263.478	E-:13
8r	.	.	.	.	.	.	.	.	.
4r	.	16e-	Get	.	.	.	.	.	.
.	.	8e-	on	.	.	.	.	.	.
.	.	16e-	up	.	.	.	.	.	.
4.r	.	2r	.	.	.	.	.	.	.
16dd	Get	.	.	.	.	.	.	.	.
[16ee-	up	.	.	.	.	.	.	.	.
=115	=115	=115	=115	=115	=115	=115	=115	=115	=115
8ee-]	_	4r	.	1E-Mm	newline	voice	.	265.701	E-:13
16~e-	ah	.	.	.	.	.	.	.	.
16r	.	.	.	.	.	.	.	.	.
4r	.	16e-	Get	.	.	.	.	.	.
.	.	8e-	on	.	.	.	.	.	.
.	.	16e-	up	.	.	.	.	.	.
2r	.	2r	.	.	.	.	.	.	.
=116	=116	=116	=116	=116	=116	=116	=116	=116	=116
1r	.	1r	.	1E-Mm	newline	piano	.	267.965	E-:13
=117	=117	=117	=117	=117	=117	=117	=117	=117	=117
1r	.	1r	.	1E-Mm	.	piano	.	270.225	E-:13
=118	=118	=118	=118	=118	=118	=118	=118	=118	=118
1r	.	1r	.	1E-Mm	newline	piano	.	272.486	E-:13
=119	=119	=119	=119	=119	=119	=119	=119	=119	=119
1r	.	1r	.	1E-Mm	.	piano	.	274.717	E-:13
=120	=120	=120	=120	=120	=120	=120	=120	=120	=120
1r	.	1r	.	1E-Mm	newline	piano	.	276.948	E-:13
=121	=121	=121	=121	=121	=121	=121	=121	=121	=121
1r	.	1r	.	1E-Mm	.	piano	.	279.197	E-:13
=122	=122	=122	=122	=122	=122	=122	=122	=122	=122
1r	.	1r	.	1E-Mm	newline	piano	.	281.447	E-:13
=123	=123	=123	=123	=123	=123	=123	=123	=123	=123
1r	.	1r	.	1E-Mm	.	piano	.	283.695	E-:13
=124	=124	=124	=124	=124	=124	=124	=124	=124	=124
1r	.	1r	.	1E-Mm	newline	piano	.	285.943	E-:13
=125	=125	=125	=125	=125	=125	=125	=125	=125	=125
1r	.	1r	.	1E-Mm	.	piano	.	288.176	E-:13
=126	=126	=126	=126	=126	=126	=126	=126	=126	=126
8r	.	1r	.	1E-Mm	newline	voice	.	290.41	E-:13
8~B-	Huh	.	.	.	.	.	.	.	.
4r	.	.	.	.	.	.	.	.	.
4.r	.	.	.	.	.	.	.	.	.
16e-	Get	.	.	.	.	.	.	.	.
[16e-	up	.	.	.	.	.	.	.	.
=127	=127	=127	=127	=127	=127	=127	=127	=127	=127
16e-]	_	4r	.	1E-Mm	.	voice	.	292.645	E-:13
16~e-	ah	.	.	.	.	.	.	.	.
8r	.	.	.	.	.	.	.	.	.
4r	.	16e-	Get	.	.	.	.	.	.
.	.	8e-	on	.	.	.	.	.	.
.	.	16e-	up	.	.	.	.	.	.
4.r	.	2r	.	.	.	.	.	.	.
16f	Get	.	.	.	.	.	.	.	.
[16g-	up	.	.	.	.	.	.	.	.
=128	=128	=128	=128	=128	=128	=128	=128	=128	=128
16g-]	_	4r	.	1E-Mm	newline	voice	.	294.88	E-:13
16~e-	ah	.	.	.	.	.	.	.	.
8r	.	.	.	.	.	.	.	.	.
4r	.	16e-	Get	.	.	.	.	.	.
.	.	8e-	on	.	.	.	.	.	.
.	.	16e-	up	.	.	.	.	.	.
4r	.	2r	.	.	.	.	.	.	.
8r	.	.	.	.	.	.	.	.	.
16ee-	Get	.	.	.	.	.	.	.	.
[16ee-	up	.	.	.	.	.	.	.	.
=129	=129	=129	=129	=129	=129	=129	=129	=129	=129
16ee-]	_	4r	.	1E-Mm	.	voice	.	297.115	E-:13
16~e-	ah	.	.	.	.	.	.	.	.
8r	.	.	.	.	.	.	.	.	.
4r	.	16e-	Get	.	.	.	.	.	.
.	.	8e-	on	.	.	.	.	.	.
.	.	16e-	up	.	.	.	.	.	.
2r	.	2r	.	.	.	.	.	.	.
=130	=130	=130	=130	=130	=130	=130	=130	=130	=130
1r	.	1r	.	1E-Mm	newline	voice	.	299.35	E-:13
=131	=131	=131	=131	=131	=131	=131	=131	=131	=131
1r	.	1r	.	1E-Mm	.	voice	.	301.555	E-:13
=132	=132	=132	=132	=132	=132	=132	=132	=132	=132
1r	.	1r	.	1E-Mm	newline	voice	.	303.76	E-:13
=133	=133	=133	=133	=133	=133	=133	=133	=133	=133
1r	.	1r	.	1E-Mm	.	voice	.	306.033	E-:13
=134	=134	=134	=134	=134	=134	=134	=134	=134	=134
1r	.	1r	.	1E-Mm	newline	voice	.	308.305	E-:13
=135	=135	=135	=135	=135	=135	=135	=135	=135	=135
1r	.	1r	.	1E-Mm	.	voice	.	310.506	E-:13
=136	=136	=136	=136	=136	=136	=136	=136	=136	=136
*>Letter>A	*>Letter>A	*>Letter>A	*>Letter>A	*>Letter>A	*>Letter>A	*>Letter>A	*>Letter>A	*>Letter>A	*>Letter>A
*>Label>Outro	*>Label>Outro	*>Label>Outro	*>Label>Outro	*>Label>Outro	*>Label>Outro	*>Label>Outro	*>Label>Outro	*>Label>Outro	*>Label>Outro
1r	.	1r	.	1A-Mm	newline	brass	.	312.707	A-:13
r;	.	r;	.	1r;	.	r	.	315.63	N.C.
r;	.	r;	.	1r;	.	r	.	319.154	N.C.
*-	*-	*-	*-	*-	*-	*-	*-	*-	*-
!!!BillboardChartDate: 1970/09/12
!!!BillboardPeak: 15
!!!BillboardWeeksOnChart: 9
!!!COC: James Brown
!!!EMD: I had to remove one measure before the bridge to align with melodic score. Not sure what was problem. -Nat
!!!ENC: Nathaniel Condit-Schultz
!!!EST: Awating manual error checking and editing.
!!!OTL: Get Up (I Feel Like Being Like A) Sex Machine (Part 1)
!!!RDF**chordsym: original McGill chord annotation + (implied pitch class set, with bass pitch in first position)
!!!RDF**harmony: **recip + pitch class of root + harmonic quality
!!!RDF**leadinstrument: original McGill primary instrumentation annotation
!!!RDF**phrase: newline = linebreak in original McGill transcription
!!!RDF**timestamp: McGill audio timestamp in seconds
!!!RDT: 2017/01/12/
!!!SampleActualRank: 32
!!!SampleID#: 0857
!!!SampleTargetRank: 34
